src/svg/file_type_less.svg

<svg xmlns="http://www.w3.org/2000/svg" fill="none" viewBox="0 0 16 16">
  <g fill-rule="evenodd" clip-rule="evenodd">
    <path fill="#7CA4C0" d="M6.06815 6.76679c-.77915 0-1.52628.64396-1.50493 1.65739 0 1.04511.69376 1.65742 1.61166 1.65742.38424 0 .81117-.13726 1.14204-.35895l-.3202-.5595c-.23481.13723-.45895.20057-.69376.20057-.42693 0-.7578-.20057-.84319-.68618h1.93186c.01067-.0739.03202-.22169.03202-.39059.01067-.85509-.45895-1.52016-1.3555-1.52016zm3.00944 1.33127c.04521.01651.09186.03354.13916.05165.41626.13723.87525.38004.87525.96065 0 .58062-.45899 1.02404-1.31285 1.02404-.40558 0-.89655-.17951-1.21675-.44343l.41626-.61228c.28817.22169.555.32726.82184.32726.28817 0 .41625-.10557.41625-.26392 0-.19637-.27698-.30142-.58192-.41707l-.06915-.02631c-.38423-.14779-.84318-.41171-.84318-.92898 0-.58061.49097-.99232 1.21675-.99232.49097 0 .85386.21113 1.12065.41171l-.42689.5595c-.23481-.16891-.44828-.26392-.68309-.26392-.23481 0-.36289.09501-.36289.25336 0 .18095.21951.2611.49056.36006zm2.57811-.00327c.0469.01753.0952.03561.144.05492.4162.13723.8752.38004.8752.96065 0 .58062-.459 1.02404-1.3128 1.02404-.4056 0-.8966-.17951-1.2168-.44343l.427-.61228c.2881.22169.555.32726.8218.32726.2882 0 .4163-.10557.4163-.26392 0-.19637-.277-.30142-.582-.41707l-.0691-.02631c-.3843-.14779-.8432-.41171-.8432-.92898 0-.58061.491-.99232 1.2167-.99232.491 0 .8539.21113 1.1207.41171l-.4269.5595c-.2348-.16891-.4483-.26392-.6831-.26392-.2348 0-.3629.09501-.3629.25336 0 .17895.2147.25932.4751.35679zm-5.57688-.62071c-.29885 0-.55501.20058-.61905.62285h1.15271c0-.35893-.14942-.62285-.53366-.62285z"/>
    <path fill="#81C5DA" d="M3.39082 5.5h-.56734c-.57635 0-.83251.22169-.83251.90787 0 .45393.06404.70729.06404 1.09789 0 .22169-.13875.45393-.55501.47505v.54894c.41626.01056.55501.2428.55501.46449 0 .3906-.06404.62284-.06404 1.07676 0 .6862.25616.9079.82184.9079h.41625v-.4856h-.12807c-.26684 0-.35222-.1056-.35222-.454 0-.34832.03202-.64391.03202-1.0345 0-.48561-.1601-.67563-.4803-.74952v-.03167c.3202-.0739.4803-.26392.4803-.74952 0-.38004-.03202-.68618-.03202-1.03455 0-.34837.07471-.44338.35222-.44338h.28983V5.5zM13.945 7.50576c0-.41171.064-.65451.064-1.09789 0-.68618-.2561-.90787-.8218-.90787h-.4163v.4856h.1281c.2882 0 .3522.09501.3522.44338 0 .32726-.032.65451-.032 1.03455 0 .48561.1601.67563.4803.74952v.03167c-.3202.0739-.4803.26392-.4803.74952 0 .38004.032.68618.032 1.03456 0 .3589-.0747.4539-.3522.4539v.0106h-.1281V11h.4163c.5657 0 .8218-.2217.8218-.9079 0-.4539-.064-.68615-.064-1.09786 0-.22169.1387-.45393.555-.47505v-.54894c-.4163-.01056-.555-.2428-.555-.46449z"/>
    <path fill="#7CA4C0" d="M4.33908 9.07869V5.5h-.51972-.4302v3.52591c0 .64396.22414 1.06619.87521 1.06619.20279 0 .36289-.0316.48029-.0739l-.10673-.68615c-.06404.01056-.29885-.05278-.29885-.25336z"/>
  </g>
</svg>

<svg width="16" height="16" viewBox="0 0 16 16" fill="none" xmlns="http://www.w3.org/2000/svg">
<g id="less">
<path id="Shape" fill-rule="evenodd" clip-rule="evenodd" d="M6.06815 6.76679C5.289 6.76679 4.54187 7.41075 4.56322 8.42418C4.56322 9.46929 5.25698 10.0816 6.17488 10.0816C6.55912 10.0816 6.98605 9.94434 7.31692 9.72265L6.99672 9.16315C6.76191 9.30038 6.53777 9.36372 6.30296 9.36372C5.87603 9.36372 5.54516 9.16315 5.45977 8.67754H7.39163C7.4023 8.60364 7.42365 8.45585 7.42365 8.28695C7.43432 7.43186 6.9647 6.76679 6.06815 6.76679ZM9.07759 8.09806C9.1228 8.11457 9.16945 8.1316 9.21675 8.14971C9.63301 8.28694 10.092 8.52975 10.092 9.11036C10.092 9.69098 9.63301 10.1344 8.77915 10.1344C8.37357 10.1344 7.8826 9.95489 7.5624 9.69097L7.97866 9.07869C8.26683 9.30038 8.53366 9.40595 8.8005 9.40595C9.08867 9.40595 9.21675 9.30038 9.21675 9.14203C9.21675 8.94566 8.93977 8.84061 8.63483 8.72496L8.56568 8.69865C8.18145 8.55086 7.7225 8.28694 7.7225 7.76967C7.7225 7.18906 8.21347 6.77735 8.93925 6.77735C9.43022 6.77735 9.79311 6.98848 10.0599 7.18906L9.63301 7.74856C9.3982 7.57965 9.18473 7.48464 8.94992 7.48464C8.71511 7.48464 8.58703 7.57965 8.58703 7.738C8.58703 7.91895 8.80654 7.9991 9.07759 8.09806ZM11.6557 8.09479L11.6557 8.09479C11.7026 8.11232 11.7509 8.1304 11.7997 8.14971C12.2159 8.28694 12.6749 8.52975 12.6749 9.11036C12.6749 9.69098 12.2159 10.1344 11.3621 10.1344C10.9565 10.1344 10.4655 9.95489 10.1453 9.69097L10.5723 9.07869C10.8604 9.30038 11.1273 9.40595 11.3941 9.40595C11.6823 9.40595 11.8104 9.30038 11.8104 9.14203C11.8104 8.94566 11.5334 8.84061 11.2284 8.72496L11.1593 8.69865C10.775 8.55086 10.3161 8.28694 10.3161 7.76967C10.3161 7.18906 10.8071 6.77735 11.5328 6.77735C12.0238 6.77735 12.3867 6.98848 12.6535 7.18906L12.2266 7.74856C11.9918 7.57965 11.7783 7.48464 11.5435 7.48464C11.3087 7.48464 11.1806 7.57965 11.1806 7.738C11.1806 7.91695 11.3953 7.99732 11.6557 8.09479ZM6.07882 7.47408C5.77997 7.47408 5.52381 7.67466 5.45977 8.09693H6.61248C6.61248 7.738 6.46306 7.47408 6.07882 7.47408Z" fill="#7CA4C0"/>
<path id="Path" fill-rule="evenodd" clip-rule="evenodd" d="M3.39082 5.5C3.3161 5.5 2.82348 5.5 2.82348 5.5C2.24713 5.5 1.99097 5.72169 1.99097 6.40787C1.99097 6.8618 2.05501 7.11516 2.05501 7.50576C2.05501 7.72745 1.91626 7.95969 1.5 7.98081V8.52975C1.91626 8.54031 2.05501 8.77255 2.05501 8.99424C2.05501 9.38484 1.99097 9.61708 1.99097 10.071C1.99097 10.7572 2.24713 10.9789 2.81281 10.9789H3.22906V10.4933H3.10099C2.83415 10.4933 2.74877 10.3877 2.74877 10.0393C2.74877 9.69098 2.78079 9.39539 2.78079 9.0048C2.78079 8.51919 2.62069 8.32917 2.30049 8.25528V8.22361C2.62069 8.14971 2.78079 7.95969 2.78079 7.47409C2.78079 7.09405 2.74877 6.78791 2.74877 6.43954C2.74877 6.09117 2.82348 5.99616 3.10099 5.99616H3.39082C3.39082 5.81374 3.39082 5.61331 3.39082 5.5Z" fill="#81C5DA"/>
<path id="Path_2" fill-rule="evenodd" clip-rule="evenodd" d="M13.945 7.50576C13.945 7.09405 14.009 6.85125 14.009 6.40787C14.009 5.72169 13.7529 5.5 13.1872 5.5H12.7709V5.9856H12.899C13.1872 5.9856 13.2512 6.08061 13.2512 6.42898C13.2512 6.75624 13.2192 7.08349 13.2192 7.46353C13.2192 7.94914 13.3793 8.13916 13.6995 8.21305V8.24472C13.3793 8.31862 13.2192 8.50864 13.2192 8.99424C13.2192 9.37428 13.2512 9.68042 13.2512 10.0288C13.2512 10.3877 13.1765 10.4827 12.899 10.4827V10.4933H12.7709V11H13.1872C13.7529 11 14.009 10.7783 14.009 10.0921C14.009 9.6382 13.945 9.40595 13.945 8.99424C13.945 8.77255 14.0837 8.54031 14.5 8.51919V7.97025C14.0837 7.95969 13.945 7.72745 13.945 7.50576Z" fill="#81C5DA"/>
<path id="Path_3" fill-rule="evenodd" clip-rule="evenodd" d="M4.33908 9.07869V6.00672V5.54223V5.5L3.81936 5.5C3.81936 5.5 3.43826 5.5 3.38916 5.5C3.38916 5.61813 3.38916 5.99616 3.38916 5.99616C3.38916 6.68234 3.38916 9.02591 3.38916 9.02591C3.38916 9.66987 3.6133 10.0921 4.26437 10.0921C4.46716 10.0921 4.62726 10.0605 4.74466 10.0182L4.63793 9.33205C4.57389 9.34261 4.33908 9.27927 4.33908 9.07869Z" fill="#7CA4C0"/>
</g>
</svg>
